panels/user-accounts/data/icons/fingerprint-detection-warning-symbolic.svg

<svg xmlns="http://www.w3.org/2000/svg" width="32" height="32" viewBox="0 0 8.467 8.467">
    <path overflow="visible" font-weight="400" d="m 4.2684194,0.26199621 c -0.5900922,-0.006 -1.1811756,0.13932088 -1.7135688,0.4371771 A 0.26457597,0.26465948 0 1 0 2.8121959,1.1616716 C 3.7138475,0.65720791 4.8148975,0.66882014 5.7060397,1.1916435 6.5971824,1.7144569 7.14366,2.6691227 7.14366,3.7025698 v 0.52916 a 0.26458003,0.2646635 0 1 0 0.52916,0 v -0.52916 A 0.26456472,0.26464821 0 0 0 7.6717881,3.676215 C 7.6625167,2.4659504 7.0184846,1.3472551 5.9737203,0.73431284 5.4475342,0.42560675 4.8585069,0.26803613 4.2684194,0.26199621 Z M 1.5244356,1.7569766 A 0.26456472,0.26464821 0 0 0 1.3125648,1.8851325 C 0.97787297,2.4231657 0.79962444,3.042883 0.7947735,3.676215 A 0.26456472,0.26464821 0 0 0 0.79374,3.7025698 v 2.679906 a 0.26458,0.2646635 0 0 0 0.52916,0 v -2.679906 c 0,-0.5437132 0.1520796,-1.0767539 0.4392441,-1.5383881 A 0.26456472,0.26464821 0 0 0 1.5244356,1.7569766 Z M 4.23328,1.849993 c -1.0088872,0 -1.8330969,0.8153304 -1.8505097,1.8205378 a 0.26456472,0.26464821 0 0 0 -0.00155,0.032039 v 0.52916 a 0.26458003,0.2646635 0 0 0 0.52916,0 v -0.52916 c 0,-0.7340309 0.5891297,-1.3234168 1.3229,-1.3234168 0.7337703,0 1.3229,0.5893859 1.3229,1.3234168 V 4.4110447 C 5.6854821,4.2368203 5.8715938,4.0894366 6.08534,4.0260602 V 3.7025698 A 0.26456472,0.26464821 0 0 0 6.083779,3.6720809 C 6.0672189,2.6661536 5.2426911,1.849993 4.23328,1.849993 Z M 4.22914,3.4338558 A 0.26456472,0.26464821 0 0 0 3.9687,3.7025698 v 2.6468335 c 0,0 -1.553e-4,0.2895352 0.071312,0.6469806 0.00877,0.043848 0.022106,0.091907 0.033073,0.1379745 L 4.49786,6.3468194 V 3.7025698 A 0.26456472,0.26464821 0 0 0 4.2291459,3.4338558 Z M 6.3251097,4.5226644 C 6.1860729,4.5146644 6.0504148,4.5975684 5.944776,4.7789762 L 4.2911556,7.8464506 C 4.1500114,8.1013375 4.3039147,8.46656 4.5805412,8.46656 h 3.4808807 c 0.2597435,0 0.5035248,-0.3067533 0.3224568,-0.6201094 L 6.7137175,4.7955125 C 6.6082242,4.6245446 6.4641524,4.5302343 6.3251156,4.5226644 Z M 2.6416659,5.5510125 A 0.26456472,0.26464821 0 0 0 2.38122,5.8197266 v 1.5879967 a 0.26458003,0.2646635 0 1 0 0.52916,0 V 5.8197266 A 0.26456472,0.26464821 0 0 0 2.6416659,5.5510125 Z m 3.699986,0.013436 C 6.4857104,5.5594481 6.6190614,5.693238 6.6145,5.8372962 V 6.87908 C 6.61635,7.0188682 6.4897161,7.14366 6.34992,7.14366 6.2101265,7.14366 6.0833636,7.0188682 6.08534,6.87908 V 5.8372962 c -0.00212,-0.1234583 0.093688,-0.2414303 0.2149712,-0.26458 0.01352,-0.004 0.027371,-0.00675 0.041341,-0.00775 z M 6.34992,7.40824 c 0.1461236,0 0.26458,0.1184617 0.26458,0.26458 0,0.1461281 -0.1184564,0.26458 -0.26458,0.26458 -0.1461236,0 -0.26458,-0.1184519 -0.26458,-0.26458 0,-0.1461183 0.1184564,-0.26458 0.26458,-0.26458 z" style="line-height:normal;font-variant-ligatures:normal;font-variant-position:normal;font-variant-caps:normal;font-variant-numeric:normal;font-variant-alternates:normal;font-feature-settings:normal;text-indent:0;text-align:start;text-decoration-line:none;text-decoration-style:solid;text-decoration-color:#000;text-transform:none;text-orientation:mixed;white-space:normal;shape-padding:0;isolation:auto;mix-blend-mode:normal;solid-color:#000;solid-opacity:1" class="warning" color="#000" font-family="sans-serif" fill="#ff7800"/>
</svg>

<svg xmlns="http://www.w3.org/2000/svg" width="32" height="32" viewBox="0 0 8.467 8.467"><path overflow="visible" font-weight="400" d="M4.268.262a3.435 3.435 0 0 0-1.713.437.265.265 0 1 0 .257.463 2.91 2.91 0 0 1 4.332 2.54v.53a.265.265 0 1 0 .529 0v-.53a.265.265 0 0 0-.001-.026A3.441 3.441 0 0 0 4.268.262ZM1.524 1.757a.265.265 0 0 0-.211.128 3.44 3.44 0 0 0-.518 1.791.265.265 0 0 0-.001.027v2.68a.265.265 0 0 0 .529 0v-2.68c0-.544.152-1.077.44-1.539a.265.265 0 0 0-.239-.407Zm2.71.093a1.856 1.856 0 0 0-1.851 1.82.265.265 0 0 0-.002.033v.529a.265.265 0 0 0 .53 0v-.53c0-.733.589-1.323 1.322-1.323.734 0 1.323.59 1.323 1.324v.708a1.05 1.05 0 0 1 .53-.385v-.323a.265.265 0 0 0-.002-.03 1.856 1.856 0 0 0-1.85-1.823Zm-.005 1.584a.265.265 0 0 0-.26.269v2.646s0 .29.071.647c.009.044.022.092.033.138l.425-.787V3.703a.265.265 0 0 0-.269-.27Zm2.096 1.089c-.139-.008-.275.075-.38.256L4.29 7.846c-.141.255.013.62.29.62h3.48c.26 0 .504-.306.323-.62l-1.67-3.05c-.106-.171-.25-.266-.389-.273ZM2.642 5.55a.265.265 0 0 0-.26.269v1.588a.265.265 0 1 0 .528 0V5.82a.265.265 0 0 0-.268-.269Zm3.7.013a.275.275 0 0 1 .272.273V6.88a.272.272 0 0 1-.264.265.272.272 0 0 1-.265-.265V5.837a.273.273 0 0 1 .215-.264.195.195 0 0 1 .042-.008zm.008 1.844a.265.265 0 1 1 0 .53.265.265 0 0 1 0-.53z" style="line-height:normal;font-variant-ligatures:normal;font-variant-position:normal;font-variant-caps:normal;font-variant-numeric:normal;font-variant-alternates:normal;font-feature-settings:normal;text-indent:0;text-align:start;text-decoration-line:none;text-decoration-style:solid;text-decoration-color:#000;text-transform:none;text-orientation:mixed;white-space:normal;shape-padding:0;isolation:auto;mix-blend-mode:normal;solid-color:#000;solid-opacity:1" class="warning" color="#000" font-family="sans-serif" fill="#ff7800"/></svg>
